docs/assets/images/money-into-wallet.svg

<svg xmlns="http://www.w3.org/2000/svg" width="68" height="68" fill="none" viewBox="0 0 68 68"><path fill="#712B02" d="M7.55273 34.1149L22.9267 21.7931L25.275 21.4395V24.0212C25.275 24.0212 21.1689 34.2316 20.5819 34.2316C19.9948 34.2316 7.55626 34.1149 7.55626 34.1149H7.55273Z"/><path stroke="#002140" stroke-linecap="round" stroke-linejoin="round" d="M6.49854 34.2311L22.2191 22.1711C23.2801 21.3576 24.6594 21.1879 25.8512 21.6476"/><path fill="#06CD7C" d="M30.5589 12.1025L18.032 12.9124C18.032 12.9124 16.4865 18.6949 18.1275 21.9451C19.7685 25.1953 22.1629 28.7037 21.8481 30.7833C21.5333 32.8628 20.7482 37.6409 20.7482 37.6409L32.6526 37.0962C32.6526 37.0962 35.4042 32.2298 34.3998 28.831C33.3953 25.4323 27.8357 18.465 30.5589 12.1025Z"/><path fill="#0B4F38" d="M32.1909 34.9256C32.8149 34.1044 32.853 33.0833 32.276 32.6449C31.699 32.2065 30.7254 32.5167 30.1015 33.3379C29.4775 34.159 29.4394 35.1801 30.0164 35.6186C30.5934 36.057 31.5669 35.7467 32.1909 34.9256Z"/><path fill="#0B4F38" d="M25.4692 35.5335C26.0932 34.7123 26.1313 33.6913 25.5543 33.2528C24.9773 32.8144 24.0037 33.1246 23.3798 33.9458C22.7558 34.7669 22.7177 35.788 23.2947 36.2265C23.8717 36.6649 24.8453 36.3546 25.4692 35.5335Z"/><path fill="#0B4F38" d="M21.0879 16.6067C21.7118 15.7856 21.7499 14.7645 21.1729 14.3261C20.596 13.8876 19.6224 14.1979 18.9984 15.019C18.3745 15.8402 18.3364 16.8613 18.9134 17.2997C19.4904 17.7381 20.4639 17.4279 21.0879 16.6067Z"/><path fill="#0B4F38" d="M27.9409 16.0706C28.5649 15.2494 28.603 14.2284 28.026 13.7899C27.449 13.3515 26.4754 13.6618 25.8515 14.4829C25.2275 15.3041 25.1894 16.3251 25.7664 16.7636C26.3434 17.202 27.3169 16.8917 27.9409 16.0706Z"/><path fill="#0B4F38" d="M28.6384 31.2116C30.5223 30.4208 30.882 26.9985 29.4419 23.5675C28.0018 20.1365 25.3071 17.9962 23.4233 18.787C21.5394 19.5777 21.1797 23.0001 22.6198 26.431C24.0599 29.862 26.7546 32.0023 28.6384 31.2116Z"/><path stroke="#002140" stroke-linecap="round" stroke-linejoin="round" d="M21.8197 33.255C22.8347 25.3435 13.6995 20.622 18.3184 12.6044L30.9868 11.9536C25.5403 21.4107 39.2308 26.2842 32.8188 37.2196L20.1504 37.8704C21.1265 36.2046 21.6393 34.6768 21.8197 33.255"/><path fill="#06CD7C" d="M48.0756 26.1113L39.8493 16.626C39.8493 16.626 34.3109 18.893 32.7158 22.1644C31.1208 25.4394 29.7768 29.4677 27.9307 30.4721C26.0846 31.48 21.8052 33.747 21.8052 33.747L29.4444 42.8964C29.4444 42.8964 34.9828 42.1396 37.0836 39.289C39.1809 36.4349 41.363 27.7913 48.0792 26.1113H48.0756Z"/><path fill="#0B4F38" d="M30.5373 40.3215C31.5686 40.3215 32.4047 39.734 32.4047 39.0094C32.4047 38.2847 31.5686 37.6973 30.5373 37.6973C29.506 37.6973 28.6699 38.2847 28.6699 39.0094C28.6699 39.734 29.506 40.3215 30.5373 40.3215Z"/><path fill="#0B4F38" d="M38.7599 21.298C39.7913 21.298 40.6273 20.7106 40.6273 19.9859C40.6273 19.2613 39.7913 18.6738 38.7599 18.6738C37.7286 18.6738 36.8926 19.2613 36.8926 19.9859C36.8926 20.7106 37.7286 21.298 38.7599 21.298Z"/><path fill="#0B4F38" d="M43.3293 26.4294C44.3606 26.4294 45.1966 25.8419 45.1966 25.1173C45.1966 24.3926 44.3606 23.8052 43.3293 23.8052C42.298 23.8052 41.4619 24.3926 41.4619 25.1173C41.4619 25.8419 42.298 26.4294 43.3293 26.4294Z"/><path fill="#0B4F38" d="M38.2674 32.1605C40.1279 28.9381 40.2017 25.4977 38.4323 24.4761C36.6629 23.4546 33.7204 25.2387 31.8599 28.4612C29.9994 31.6836 29.9256 35.124 31.695 36.1456C33.4643 37.1671 36.4069 35.383 38.2674 32.1605Z"/><path fill="#0B4F38" d="M24.1395 35.9998C24.9892 35.9998 25.678 35.311 25.678 34.4613C25.678 33.6116 24.9892 32.9229 24.1395 32.9229C23.2899 32.9229 22.6011 33.6116 22.6011 34.4613C22.6011 35.311 23.2899 35.9998 24.1395 35.9998Z"/><path fill="#0B4F38" d="M29.8832 38.4578C30.7328 38.4578 31.4216 37.769 31.4216 36.9193C31.4216 36.0697 30.7328 35.3809 29.8832 35.3809C29.0335 35.3809 28.3447 36.0697 28.3447 36.9193C28.3447 37.769 29.0335 38.4578 29.8832 38.4578Z"/><path fill="#712B02" d="M8.11149 33.5273C8.11149 33.5273 6.23352 33.881 6.11681 35.0517C6.0001 36.2223 6.11681 57.8172 6.11681 57.8172C6.11681 57.8172 7.87807 59.3416 8.69858 59.3416H47.0715C47.0715 59.3416 48.7161 57.934 48.7161 56.4096V35.4053C48.7161 35.4053 48.129 33.5273 46.7214 33.5273H8.11503H8.11149Z"/><path fill="#C88000" d="M6.23342 38.4541H41.6709C41.6709 38.4541 44.9565 38.5708 44.9565 41.1526V52.7706C44.9565 52.7706 44.2527 54.7653 40.1466 54.7653H6L6.23342 38.4541Z"/><path fill="#F6DC5E" d="M38.5872 49.4253C40.013 49.4253 41.1689 48.2694 41.1689 46.8435C41.1689 45.4176 40.013 44.2617 38.5872 44.2617C37.1613 44.2617 36.0054 45.4176 36.0054 46.8435C36.0054 48.2694 37.1613 49.4253 38.5872 49.4253Z"/><path stroke="#002140" stroke-linecap="round" stroke-linejoin="round" d="M46.5475 33.4429H8.11092C6.95264 33.4429 6.01367 34.3818 6.01367 35.5401V57.0502C6.01367 58.2085 6.95264 59.1474 8.11092 59.1474H46.5475C47.7058 59.1474 48.6448 58.2085 48.6448 57.0502V35.5401C48.6448 34.3818 47.7058 33.4429 46.5475 33.4429Z"/><path stroke="#002140" stroke-linecap="round" stroke-linejoin="round" d="M6.43455 38.3374H41.193C43.3398 38.3374 45.0763 40.0279 45.0763 42.111V50.9881C45.0763 53.0712 43.3362 54.7617 41.193 54.7617H6.27539"/><path stroke="#002140" stroke-linecap="round" stroke-linejoin="round" d="M38.587 49.5807C40.0988 49.5807 41.3244 48.3552 41.3244 46.8433C41.3244 45.3315 40.0988 44.106 38.587 44.106C37.0752 44.106 35.8496 45.3315 35.8496 46.8433C35.8496 48.3552 37.0752 49.5807 38.587 49.5807Z"/><path stroke="#002140" stroke-linecap="round" stroke-linejoin="round" d="M21.8403 33.3333C33.713 31.4695 29.6139 18.0336 40.27 16.6685L48.4538 26.3625C43.6404 26.9779 41.8367 30.0583 40.2134 33.4217"/><path fill="#06CD7C" d="M66.8058 20.5056L61.766 9.00781C61.766 9.00781 55.8032 9.5277 53.3098 12.1802C50.8165 14.8327 48.3373 18.281 46.2754 18.6948C44.2135 19.1086 39.4531 19.9998 39.4531 19.9998L44.0296 31.0024C44.0296 31.0024 49.5433 31.9255 52.3938 29.8247C55.2444 27.7239 59.8951 20.1165 66.8058 20.5056Z"/><path fill="#0B4F38" d="M48.077 29.1278C48.2921 28.4358 47.6682 27.6266 46.6833 27.3204C45.6985 27.0143 44.7258 27.327 44.5106 28.019C44.2955 28.711 44.9194 29.5202 45.9043 29.8263C46.8891 30.1325 47.8618 29.8198 48.077 29.1278Z"/><path fill="#0B4F38" d="M45.2064 23.0179C45.4215 22.3259 44.7975 21.5168 43.8127 21.2106C42.8279 20.9044 41.8552 21.2172 41.64 21.9092C41.4249 22.6011 42.0488 23.4103 43.0337 23.7165C44.0185 24.0227 44.9912 23.7099 45.2064 23.0179Z"/><path fill="#0B4F38" d="M61.5023 12.4393C61.7174 11.7473 61.0935 10.9381 60.1086 10.632C59.1238 10.3258 58.151 10.6386 57.9359 11.3305C57.7208 12.0225 58.3447 12.8317 59.3296 13.1379C60.3144 13.444 61.2871 13.1313 61.5023 12.4393Z"/><path fill="#0B4F38" d="M64.3441 18.6966C64.5592 18.0046 63.9352 17.1955 62.9504 16.8893C61.9656 16.5831 60.9928 16.8959 60.7777 17.5879C60.5626 18.2799 61.1865 19.089 62.1714 19.3952C63.1562 19.7014 64.1289 19.3886 64.3441 18.6966Z"/><path fill="#0B4F38" d="M55.6442 23.3612C58.3774 20.8364 59.4693 17.573 58.083 16.0722C56.6967 14.5715 53.3571 15.4016 50.6238 17.9264C47.8906 20.4513 46.7987 23.7147 48.185 25.2154C49.5713 26.7162 52.9109 25.8861 55.6442 23.3612Z"/><path stroke="#002140" stroke-linecap="round" stroke-linejoin="round" d="M67.0923 20.8592C56.3408 18.9671 56.4363 33.4993 43.966 31.204L39.0288 19.5153C51.4991 21.8106 51.4036 7.27835 62.1551 9.17047L67.0923 20.8592Z"/></svg>

<svg xmlns="http://www.w3.org/2000/svg" width="68" height="68" fill="none" viewBox="0 0 68 68"><path fill="#712b02" d="m7.553 34.115 15.374-12.322 2.348-.354v2.582s-4.106 10.21-4.693 10.21-13.026-.116-13.026-.116z"/><path stroke="#002140" stroke-linecap="round" stroke-linejoin="round" d="m6.499 34.231 15.72-12.06a3.75 3.75 0 0 1 3.632-.523"/><path fill="#06cd7c" d="m30.559 12.103-12.527.81s-1.546 5.782.096 9.032c1.64 3.25 4.035 6.759 3.72 8.838-.315 2.08-1.1 6.858-1.1 6.858l11.905-.545s2.751-4.866 1.747-8.265c-1.005-3.399-6.564-10.366-3.841-16.728"/><path fill="#0b4f38" d="M32.19 34.926c.625-.822.663-1.843.086-2.281s-1.55-.128-2.175.693c-.623.821-.662 1.842-.085 2.28.577.439 1.55.129 2.175-.692m-6.721.608c.623-.822.661-1.843.084-2.281s-1.55-.128-2.174.693c-.624.82-.662 1.842-.085 2.28.577.439 1.55.129 2.174-.693m-4.381-18.926c.624-.821.662-1.842.085-2.28-.577-.44-1.55-.13-2.175.692-.623.821-.662 1.842-.085 2.28.577.44 1.55.129 2.175-.692m6.852-.537c.625-.82.663-1.842.086-2.28s-1.55-.128-2.174.693c-.625.821-.663 1.842-.086 2.28.577.439 1.55.129 2.175-.692m.697 15.141c1.884-.791 2.244-4.213.804-7.645-1.44-3.43-4.135-5.57-6.019-4.78S21.18 23 22.62 26.431s4.135 5.571 6.018 4.78"/><path stroke="#002140" stroke-linecap="round" stroke-linejoin="round" d="M21.82 33.255c1.015-7.912-8.12-12.633-3.502-20.65l12.669-.651c-5.447 9.457 8.244 14.33 1.832 25.266l-12.669.65c.977-1.665 1.49-3.193 1.67-4.615"/><path fill="#06cd7c" d="m48.076 26.111-8.227-9.485s-5.538 2.267-7.133 5.538c-1.595 3.275-2.94 7.304-4.785 8.308a827 827 0 0 1-6.126 3.275l7.64 9.15s5.538-.757 7.639-3.608c2.097-2.854 4.279-11.498 10.995-13.178z"/><path fill="#0b4f38" d="M30.537 40.322c1.032 0 1.868-.588 1.868-1.313 0-.724-.836-1.312-1.868-1.312-1.031 0-1.867.588-1.867 1.312s.836 1.313 1.867 1.313m8.223-19.024c1.031 0 1.867-.587 1.867-1.312s-.836-1.312-1.867-1.312-1.867.587-1.867 1.312.836 1.312 1.867 1.312m4.57 5.132c1.03 0 1.867-.588 1.867-1.313 0-.724-.836-1.312-1.868-1.312-1.031 0-1.867.588-1.867 1.312s.836 1.312 1.867 1.312m-5.062 5.731c1.86-3.222 1.935-6.662.165-7.684-1.77-1.021-4.712.763-6.572 3.985s-1.934 6.663-.165 7.685c1.77 1.021 4.712-.763 6.572-3.986M24.14 36a1.538 1.538 0 1 0 0-3.077 1.538 1.538 0 0 0 0 3.077"/><path fill="#0b4f38" d="M29.883 38.458a1.538 1.538 0 1 0 0-3.077 1.538 1.538 0 0 0 0 3.077"/><path fill="#712b02" d="M8.111 33.527s-1.877.354-1.994 1.525 0 22.765 0 22.765 1.761 1.525 2.582 1.525h38.373s1.644-1.408 1.644-2.932V35.405s-.587-1.878-1.995-1.878z"/><path fill="#c88000" d="M6.233 38.454h35.438s3.285.117 3.285 2.699V52.77s-.703 1.994-4.81 1.994H6z"/><path fill="#f6dc5e" d="M38.587 49.425a2.582 2.582 0 1 0 0-5.163 2.582 2.582 0 0 0 0 5.163"/><path stroke="#002140" stroke-linecap="round" stroke-linejoin="round" d="M46.548 33.443H8.11a2.097 2.097 0 0 0-2.097 2.097v21.51c0 1.159.939 2.097 2.097 2.097h38.436a2.097 2.097 0 0 0 2.098-2.097V35.54a2.097 2.097 0 0 0-2.098-2.097"/><path stroke="#002140" stroke-linecap="round" stroke-linejoin="round" d="M6.435 38.337h34.758c2.147 0 3.883 1.69 3.883 3.774v8.877c0 2.083-1.74 3.774-3.883 3.774H6.275"/><path stroke="#002140" stroke-linecap="round" stroke-linejoin="round" d="M38.587 49.58a2.737 2.737 0 1 0 0-5.474 2.737 2.737 0 0 0 0 5.475M21.84 33.333c11.873-1.863 7.774-15.3 18.43-16.664l8.184 9.694c-4.814.615-6.617 3.695-8.24 7.059"/><path fill="#06cd7c" d="m66.806 20.506-5.04-11.498s-5.963.52-8.456 3.172c-2.494 2.653-4.973 6.101-7.035 6.515-2.061.414-6.822 1.305-6.822 1.305l4.577 11.002s5.513.924 8.364-1.177c2.85-2.101 7.501-9.708 14.412-9.32"/><path fill="#0b4f38" d="M48.077 29.128c.215-.692-.409-1.501-1.394-1.808-.984-.306-1.957.007-2.172.699s.408 1.501 1.393 1.807 1.958-.006 2.173-.698m-2.871-6.11c.215-.692-.409-1.501-1.393-1.807-.985-.307-1.958.006-2.173.698s.409 1.501 1.394 1.808c.985.306 1.957-.007 2.172-.7M61.502 12.44c.215-.693-.409-1.502-1.393-1.808-.985-.306-1.958.007-2.173.699s.409 1.5 1.394 1.807 1.957-.007 2.172-.699m2.842 6.258c.215-.692-.409-1.501-1.394-1.808-.984-.306-1.957.007-2.172.699s.409 1.501 1.393 1.807c.985.306 1.958-.006 2.173-.698m-8.7 4.664c2.733-2.525 3.825-5.788 2.439-7.289s-4.726-.67-7.46 1.854c-2.732 2.525-3.824 5.789-2.438 7.29 1.386 1.5 4.726.67 7.46-1.855"/><path stroke="#002140" stroke-linecap="round" stroke-linejoin="round" d="M67.092 20.86C56.341 18.966 56.436 33.5 43.966 31.203l-4.937-11.689C51.499 21.811 51.404 7.278 62.155 9.17z"/></svg>
